X:78
T:A Persian Dance
S:John Moore's Book 2
Z:Transcribed by Peter Kanssen 2-05-21
%%VWML: Moore1-4494-p61-0
F:http://www.vwml.org/record/Moore2/4494/p61
M:2/4
K:G
L:1/8
|:d/c/ | BB/c/ AA/B/ | GGG A/B/ | (c/B/)c/d/ (B/A/)B/c/ | AA Ad/c/ | 
BB/c/ AA/B/ | GG GA/B/ | (c/B/)A/G/ (F/G/)A/F/ | GGG :|
|:d/c/ | Bg/f/ (e/d/)c/B/ | (d/c/)B/c/ Ad/c/ | Bg/f/ (e/d/)c/B/ | AAA d/c/ |
 Bg/f/ (e/d/)c/B/ | (d/c/)B/c/ Ad/c/ | B/d/c/B/ A/c/B/A/ | GGG:|
|:B/c/ |ddd{f}g | ddd{f}g | dd e/d/c/B/ | d/c/B/c/ AB/c/ | 
ddd{f}g | ddd{f}g | (d/c/)B/d/ (d/c/)B/A/ | GGG:|



